X: 74
T: Baisi\'es moy
N: Derived from Ock3002-Baisies_moy.krn
C: Johannes Ockeghem
%%abc-version 2.0
%%abcx-abcm2ps-target-version 5.9.1 (29 Sep 2008)
%%abc-creator hum2abc beta
%%abcx-conversion-date 2019/02/17 07:26:16
%%abc-edited-by Jesse Rodin
%%abc-edited-by Chris Gage 06-13-2012
%%abcx-initial-encoding-date 2012/08/16/
%%humdrum-veritas 2923756331
%%humdrum-veritas-data 673132549
%%linebreak <none>
%%barnumbers 0
L: 1/4
M: 2/1
Q: 1/2=120
V: 1 clef=treble
V: 2 clef=treble-8
V: 3 clef=bass
K: F
[V:1] z8 | 
[V:2] G8 | 
[V:3] G,,8 | 
[V:1] z8 | 
[V:2] B6c2 | 
[V:3] D,6E,2 | 
[V:1] z8 | 
[V:2] d4_e4 | 
[V:3] F,4C,4 | 
[V:1] z8 | 
[V:2] c4f4 | 
[V:3] F,8- | 
[V:1] z8 | 
[V:2] f4e4- | 
[V:3] F,4C,4 | 
[V:1] z8 | 
[V:2] e2d2d4- | 
[V:3] F,4G,4 | 
[V:1] z8 | 
[V:2] d2^c=B^c4 | 
[V:3] E,8 | 
[V:1] D8 | 
[V:2] d8- | 
[V:3] D,8 | 
[V:1] F6G2 | 
[V:2] d8- | 
[V:3] D,6E,2 | 
[V:1] A4B4 | 
[V:2] d8 | 
[V:3] F,4G,4 | 
[V:1] G4c4 | 
[V:2] _e6c2 | 
[V:3] C,8 | 
[V:1] c4B4- | 
[V:2] _e4d4 | 
[V:3] z8 | 
[V:1] B2A2A4- | 
[V:2] A4c4 | 
[V:3] z8 | 
[V:1] A2GFG4 | 
[V:2] B8 | 
[V:3] z4G,,4 | 
[V:1] A8 | 
[V:2] z4A4 | 
[V:3] D,4C,2D,2- | 
[V:1] z4A4 | 
[V:2] B4c4 | 
[V:3] D,2B,,2A,,4 | 
[V:1] B4c4 | 
[V:2] d4e4 | 
[V:3] G,,4C,4 | 
[V:1] d4B2G2 | 
[V:2] f3dedg2- | 
[V:3] B,,2F,2G,2B,2 | 
[V:1] A4B4 | 
[V:2] g2^f2g4 | 
[V:3] A,4G,2G,,2 | 
[V:1] A2c2B2A2- | 
[V:2] f2e2d3c | 
[V:3] z2A,,2B,,2C,2 | 
[V:1] A2GFE3D/E/ | 
[V:2] A2d4^c2 | 
[V:3] D,4A,,4 | 
[V:1] F3EF2E2- | 
[V:2] d2B2A4 | 
[V:3] z2D,4C,2- | 
[V:1] E2DCB,3A, | 
[V:2] A4G4 | 
[V:3] C,2B,,A,,B,,2G,,2 | 
[V:1] C3DF2E2- | 
[V:2] A3GA2G2- | 
[V:3] F,,6C,2- | 
[V:1] E2D4^C2 | 
[V:2] GDF2E4 | 
[V:3] C,B,,D,2A,,4 | 
[V:1] D2F3GA2- | 
[V:2] D4z2d2- | 
[V:3] z2D,4F,2- | 
[V:1] ABc3BAG | 
[V:2] d2c2_e4 | 
[V:3] F,2E,2C,4 | 
[V:1] !fermata!^F8- | 
[V:2] !fermata!d3cA2B2 | 
[V:3] !fermata!D,8 | 
[V:1] F8 | 
[V:2] A2B4F2- | 
[V:3] D,4B,,3C, | 
[V:1] z8 | 
[V:2] F2B2c2B2 | 
[V:3] D,3B,,A,,2G,,2 | 
[V:1] z8 | 
[V:2] G2B2A4 | 
[V:3] G,2G,4^F,2 | 
[V:1] B8 | 
[V:2] G8 | 
[V:3] G,8 | 
[V:1] B4A4 | 
[V:2] z4F4 | 
[V:3] D,4D,4 | 
[V:1] G6FE | 
[V:2] G6A2 | 
[V:3] _E,6D,C, | 
[V:1] D4E2F2- | 
[V:2] B4A4 | 
[V:3] B,,4C,2D,2- | 
[V:1] F2B,4F2 | 
[V:2] B4B,4 | 
[V:3] D,2_E,2D,2B,,2 | 
[V:1] E2F4D2 | 
[V:2] z4B4 | 
[V:3] A,,4B,,4 | 
[V:1] C4B,2F2 | 
[V:2] A4B4 | 
[V:3] F,,4B,,4 | 
[V:1] G2F4B2- | 
[V:2] B,4B3c | 
[V:3] G,,2A,,2B,,4 | 
[V:1] B2AGA4 | 
[V:2] d2B2c4 | 
[V:3] B,,4F,4 | 
[V:1] B6G2 | 
[V:2] B8 | 
[V:3] z2G,3F,E,2 | 
[V:1] A8 | 
[V:2] z4f4 | 
[V:3] D,8- | 
[V:1] z2d4c2 | 
[V:2] f4f4 | 
[V:3] D,4z4 | 
[V:1] d2cBA3G | 
[V:2] f8 | 
[V:3] D,8 | 
[V:1] B4A4- | 
[V:2] g4f3e | 
[V:3] G,,4D,4 | 
[V:1] A2GFE4 | 
[V:2] c2d4^c2 | 
[V:3] F,3G,A,4 | 
[V:1] D2F3G/A/B2 | 
[V:2] d8 | 
[V:3] z2B,4G,2 | 
[V:1] A2B2ABc2 | 
[V:2] z2d4c2 | 
[V:3] F,2B,,2F,4 | 
[V:1] BGG4^F2 | 
[V:2] G2B2A4 | 
[V:3] G,4D,4 | 
[V:1] G3DG2B2- | 
[V:2] G8 | 
[V:3] z2E,3F,G,2 | 
[V:1] Bcd4G2- | 
[V:2] F4B4 | 
[V:3] D,4G,,4 | 
[V:1] G2F2E4 | 
[V:2] c6BA | 
[V:3] C,8 | 
[V:1] D8 | 
[V:2] B4G2G2- | 
[V:3] G,8 | 
[V:1] G6E2 | 
[V:2] G2FEG4 | 
[V:3] C,8 | 
[V:1] F4D2D2- | 
[V:2] D4G4- | 
[V:3] B,,6G,,2 | 
[V:1] D2CB,D3C | 
[V:2] G4F4- | 
[V:3] G,,2E,,2D,,4 | 
[V:1] A,8- | 
[V:2] F2D2D4- | 
[V:3] D,,8 | 
[V:1] A,8 |]  
[V:2] D8 |]  
[V:3] D,8 |]  



